images/view/view-2.svg

<svg xmlns="http://www.w3.org/2000/svg" width="48" height="48" fill="none" viewBox="0 0 48 48"><g fill="#000" clip-path="url(#a)"><path d="M32 29H16v2h16v-2ZM30 19v6H18v-6h12Zm2-2H16v10h16V17Z"/></g><rect width="46" height="46" x="1" y="1" stroke="#E5E5E5" stroke-width="2" rx="3"/><defs><clipPath id="a"><path fill="#fff" d="M16 17h16v14H16z"/></clipPath></defs></svg>

<svg width="48" height="48" viewBox="0 0 48 48" fill="none" xmlns="http://www.w3.org/2000/svg">
<g clip-path="url(#clip0_33548_2210)">
<path d="M32 29H16V31H32V29Z" fill="black"/>
<path d="M30 19V25H18V19H30ZM32 17H16V27H32V17Z" fill="black"/>
</g>
<rect x="1" y="1" width="46" height="46" rx="3" stroke="#E5E5E5" stroke-width="2"/>
<defs>
<clipPath id="clip0_33548_2210">
<rect width="16" height="14" fill="white" transform="translate(16 17)"/>
</clipPath>
</defs>
</svg>
